X: 313
T: A Pilgrim Journey
R: waltz
M: 3/4
K: Gmajor
G|G3 A (3BAG|Dd d3 B|BA A3 E|ABcB (c2|c) e (3cBA BG|
E3 F (3GFE|CEDG (3BcB|A6:|d|ef g3 b|afgd c2|
Ac BGBd|gbc'd' (a2|a3) e cB|AE A3 B|
cA G2 EG|CEDB, (D2|D) B, DG (3BcB|A6:|

